src/shared/assets/icons/ic-reservation-list.svg

<svg viewBox="0 0 24 24" fill="none" xmlns="http://www.w3.org/2000/svg">
<path d="M20 2H4C2.897 2 2 2.894 2 3.992V16.008C2 17.106 2.897 18 4 18H7V22L13.351 18H20C21.103 18 22 17.106 22 16.008V3.992C21.9984 3.46279 21.7869 2.95583 21.412 2.58237C21.037 2.20891 20.5292 1.99947 20 2ZM14 13H7V11H14V13ZM17 9H7V7H17V9Z" fill="currentColor"/>
</svg>

<svg xmlns="http://www.w3.org/2000/svg" fill="none" viewBox="0 0 24 24"><path fill="currentColor" d="M20 2H4c-1.103 0-2 .894-2 1.992v12.016C2 17.106 2.897 18 4 18h3v4l6.351-4H20c1.103 0 2-.894 2-1.992V3.992A2 2 0 0 0 20 2m-6 11H7v-2h7zm3-4H7V7h10z"/></svg>
